img/has-sub.svg

<?xml version="1.0" encoding="UTF-8" standalone="no"?>
<!DOCTYPE svg PUBLIC "-//W3C//DTD SVG 1.1//EN" "http://www.w3.org/Graphics/SVG/1.1/DTD/svg11.dtd">
<svg width="100%" height="100%" viewBox="0 0 100 100" version="1.1" xmlns="http://www.w3.org/2000/svg" xmlns:xlink="http://www.w3.org/1999/xlink" xml:space="preserve" xmlns:serif="http://www.serif.com/" style="fill-rule:evenodd;clip-rule:evenodd;stroke-linejoin:round;stroke-miterlimit:2;">
    <g transform="matrix(1,0,0,1,0.00538267,-0.0757174)">
        <g id="Add" transform="matrix(3.22266,4.37122e-31,0,3.22396,-621.979,-95.031)">
            <path d="M193,43.5L207,43.5L207,29.5L210,29.5L210,43.5L224,43.5L224,46.5L210,46.5L210,60.5L207,60.5L207,46.5L193,46.5L193,43.5Z"/>
        </g>
    </g>
</svg>

<svg clip-rule="evenodd" fill-rule="evenodd" stroke-linejoin="round" stroke-miterlimit="2" viewBox="0 0 100 100" xmlns="http://www.w3.org/2000/svg"><path d="m193 43.5h14v-14h3v14h14v3h-14v14h-3v-14h-14z" transform="matrix(3.22266 0 0 3.22396 -621.973617 -95.106717)"/></svg>
